wilib/img/svg/personagem_004.svg

<svg xmlns="http://www.w3.org/2000/svg" xmlns:xlink="http://www.w3.org/1999/xlink" preserveAspectRatio="none" width="173" height="187" viewBox="0 0 173 187"><defs><linearGradient id="a" gradientUnits="userSpaceOnUse" x1="484.725" y1="72.05" x2="663.375" y2="72.05"><stop offset="0%" stop-color="#837F78"/><stop offset="100%" stop-color="#6B5B4B"/></linearGradient><linearGradient id="b" gradientUnits="userSpaceOnUse" x1="573.35" y1="-16.85" x2="573.35" y2="103.75"><stop offset="0%" stop-color="#A29E95"/><stop offset="100%" stop-color="#A08870"/></linearGradient><linearGradient id="c" gradientUnits="userSpaceOnUse" x1="573.4" y1="102.05" x2="573.4" y2="278.85"><stop offset="0%" stop-color="#D266B1"/><stop offset="100%" stop-color="#DDAAC9"/></linearGradient><linearGradient id="d" gradientUnits="userSpaceOnUse" x1="572.15" y1="215.5" x2="572.15" y2="273.4"><stop offset="0%" stop-color="#C2719A"/><stop offset="100%" stop-color="#E6ABC7"/></linearGradient><linearGradient id="e" gradientUnits="userSpaceOnUse" x1="65.95" y1=".025" x2="65.95" y2="72.475"><stop offset="2.353%" stop-color="#868686"/><stop offset="84.314%" stop-color="#313332"/></linearGradient><filter id="f" x="-27.399%" y="-87.468%" width="154.798%" height="274.936%" color-interpolation-filters="sRGB"><feGaussianBlur in="SourceGraphic" stdDeviation="7.333333333333333,7.333333333333333" result="result1"/></filter><filter id="k" x="-42.551%" y="-21.834%" width="185.101%" height="143.669%" color-interpolation-filters="sRGB"><feGaussianBlur in="SourceGraphic" stdDeviation="1.6666666666666667,1.6666666666666667" result="result1"/><feColorMatrix in="result1" values="0 0 0 0 1 0 0 0 0 0.8 0 0 0 0 1 0 0 0 0.57 0" result="result2"/></filter><filter id="m" x="-20.629%" y="-29.329%" width="141.258%" height="158.659%" color-interpolation-filters="sRGB"><feGaussianBlur in="SourceGraphic" stdDeviation="1.6666666666666667,1.6666666666666667" result="result1"/></filter><filter id="o" x="-31.507%" y="-25.657%" width="163.013%" height="151.314%" color-interpolation-filters="sRGB"><feGaussianBlur in="SourceGraphic" stdDeviation="1.6666666666666667,1.6666666666666667" result="result1"/><feColorMatrix in="result1" values="1 0 0 0 0 0 1 0 0 0 0 0 1 0 0 0 0 0 0.43 0" result="result2"/></filter><path fill="#BBBDBC" d="M85 26q35.2 0 60.1-3.8T170 13q0-5.4-24.9-9.2Q120.2 0 85 0T24.9 3.8Q0 7.6 0 13q0 5.4 24.9 9.2Q49.8 26 85 26z" id="g"/><g id="h"><path fill="#201E1F" d="M484.75 45.75q-3.7 1.6-6.95 3.5-9.05 5.2-15 12.7-2.8 3.5-4.9 7.55-2.6 4.9-4.1 10.5-6.2 19.55-28 21.5 22 19.55 43.5 21.2 7.05.5 14.1-.85 3.9-3.95 8.05-7.4-11.1 3.2-22.15 2.05-16.2-1.8-32.35-13.1 18.15-3.6 23.1-21.3 1-4.3 2.75-8.2 1-2.25 3.85-7 2.8-4.7 8.5-8.8 5.65-4.1 11.95-4.45-1.8-5.75-2.35-7.9m135.15-59.4q5.95-1.05 12-3.2-.75 17.15 12 32.6 1.55 1.45 3.05 2.95 5.5 5.55 9.2 11.4 5.65 8.7 7.25 17.9 3.6-12.5 3.6-26.6 0-38.4-27.1-65.65-27.05-27.1-65.55-27.1-38.4 0-65.5 27.1-27.1 27.25-27.1 65.65 0 11.9 2.65 22.8.2.75.35 1.55 1.25-7.7 5.75-14.95 3.25-5.3 8.25-10.3 14.05-9.3 15.45-33.9 41.95 21.95 91.45 10.2 1.1-.3 2.05-.55-16.6-5.75-23.5-13.1 17.8 6.35 35.7 3.2z"/><path fill="#FFFFFA" d="M574.35 180.25q34.75-30.05 44.95-73.05-20.05 11.2-44.95 11.2-24.45 0-44.25-10.9 7.75 40.45 44.25 72.75z"/><path fill="#E2E2DE" d="M529.35 102.65q.3 2.35.75 4.85 19.8 10.9 44.25 10.9 24.9 0 44.95-11.2.65-2.65 1.15-5.2-20.5 12-46.1 12-24.95 0-45-11.35z"/><path fill="#4E4F4F" d="M519.55 96.15q-5.6-4.2-10.7-9.35-16.4-16.4-21.75-33.15-6.3.35-11.95 4.45-5.7 4.1-8.5 8.8-2.85 4.75-3.85 7-1.75 3.9-2.75 8.2-4.95 17.7-23.1 21.3 16.15 11.3 32.35 13.1 11.05 1.15 22.15-2.05 13.15-11.25 28.1-18.3z"/><path fill="#CA1974" d="M629.1 96.25q-1 .7-2.05 1.45-1.85 1.3-3.65 2.5-1.45.85-2.95 1.8-.5 2.55-1.15 5.2-10.2 43-44.95 73.05-36.5-32.3-44.25-72.75-.45-2.5-.75-4.85-3.3-1.95-6.35-4-1.75-1.2-3.45-2.5-14.95 7.05-28.1 18.3-4.15 3.45-8.05 7.4-.25.2-.45.4-32.9 32.95-37.1 77.8-.25 2.1-.35 4.3-.35 4.55-.35 9.15v53.45q-.25 4.55 1.25 7.8 2.7 6 11.05 7.7l235.3 1.55q7.25-1.1 9.55-9.25 1.3-4.6 1.05-11.25v-50q0-4.6-.3-9.15-.1-2.2-.3-4.3-4.3-44.85-37.15-77.8-16.8-16.7-36.5-26z"/><path fill="url(#a)" d="M617.4 91.35q-1.3.8-2.65 1.75-18.5 10.65-41.45 10.65-22.5 0-40.5-10.2-3-1.65-5.75-3.6-1.55-1.1-3.15-2.2-4.95-3.9-9.7-8.5-16.15-16.2-21.65-36.85-.2-.75-.25-1.45-1.15-4.95-1.8-10.15-4.5 7.25-5.75 14.95.55 2.15 2.35 7.9 5.35 16.75 21.75 33.15 5.1 5.15 10.7 9.35 1.7 1.3 3.45 2.5 3.05 2.05 6.35 4 20.05 11.35 45 11.35 25.6 0 46.1-12 1.5-.95 2.95-1.8 1.8-1.2 3.65-2.5 1.05-.75 2.05-1.45 5.6-4.2 10.8-9.45 17.15-17.15 23.5-38.8-1.6-9.2-7.25-17.9-.75 7.45-2.8 14.3-5.65 19.45-21.1 34.85-4.55 4.75-9.75 8.5-.8.65-1.8 1.35-1.65 1.1-3.3 2.25z"/><path fill="url(#b)" d="M631.9-16.85q-6.05 2.15-12 3.2-17.9 3.15-35.7-3.2 6.9 7.35 23.5 13.1-.95.25-2.05.55-49.5 11.75-91.45-10.2-1.4 24.6-15.45 33.9-5 5-8.25 10.3.65 5.2 1.8 10.15.05.7.25 1.45 5.5 20.65 21.65 36.85 4.75 4.6 9.7 8.5 1.6 1.1 3.15 2.2 2.75 1.95 5.75 3.6 18 10.2 40.5 10.2 22.95 0 41.45-10.65 1.35-.95 2.65-1.75 1.65-1.15 3.3-2.25 1-.7 1.8-1.35 5.2-3.75 9.75-8.5 15.45-15.4 21.1-34.85 2.05-6.85 2.8-14.3-3.7-5.85-9.2-11.4-1.5-1.5-3.05-2.95-12.75-15.45-12-32.6z"/></g><path fill="url(#c)" d="M692.7 212.5q0-6.5-.6-12.65-3.95-42.3-34.35-73.2-14.6-14.85-31.5-23.45-12.15 52.2-51.9 86.55-42.7-37.65-51.05-87.7-18.75 8.8-34.25 24.6-30.4 30.9-34.3 73.2-.65 6.15-.65 12.65v50.3q-.65 12.1 11.35 14.6l217.45 1.45q7.5-1.2 9.3-10.6.7-3.75.5-8.75v-47z" id="i"/><path fill="url(#d)" d="M684.65 273.4v-57.9q-115.85 69.65-225.05 0v51.55l225.05 6.35z" id="j"/><path fill="#D7A26C" d="M6.9 0L0 22q47.05 20.2 33.05 96.4 14.2-39.95 8.25-66.1Q37.05 18.4 6.9 0z" id="l"/><path fill="url(#e)" d="M131.65 72.5q.25-2.7.25-5.55 0-27.75-19.65-47.35Q92.75 0 65 0T17.6 19.6Q4.1 33.15 0 50.6q9.35-2.35 12.45-19.7 24.95 14.6 56.5 12.05-9.85-9.8-12.1-19.65 23.25 14.9 61 7.25-2.35 16.95 13.8 41.95z" id="n"/><path fill="#E6CBAE" d="M65.15 28.5q-1.2-1.2-2.45-2.35Q52.5 13.75 53.1 0q-4.85 1.7-9.65 2.55Q62.3 64.5.4 85.75q-1.8 1.9 4.1 3.75 30.3-4.85 47.2-24.45Q64.35 48.1 65.15 28.5z" id="p"/></defs><use xlink:href="#g" transform="matrix(.83942 0 0 1.2331 13.05 138.95)" filter="url(#f)"/><use xlink:href="#h" transform="matrix(.44788 0 0 .44788 -172.65 35.95)"/><use xlink:href="#i" transform="matrix(.44788 0 0 .44788 -172.65 35.95)"/><use xlink:href="#j" transform="matrix(.44788 0 0 .44788 -172.65 35.95)"/><use xlink:href="#l" transform="matrix(.55853 0 0 .55853 107.65 92.1)" filter="url(#k)"/><use xlink:href="#n" transform="matrix(.55853 0 0 .55853 47.85 7.05)" filter="url(#m)"/><use xlink:href="#p" transform="matrix(.55853 0 0 .55853 80.35 29.5)" filter="url(#o)"/></svg>

<svg xmlns="http://www.w3.org/2000/svg" version="1.1" xmlns:xlink="http://www.w3.org/1999/xlink" preserveAspectRatio="none" x="0px" y="0px" width="173px" height="187px" viewBox="0 0 173 187">
<defs>
<linearGradient id="Gradient_1" gradientUnits="userSpaceOnUse" x1="484.72499999999997" y1="72.05" x2="663.375" y2="72.05" spreadMethod="pad">
<stop  offset="0%" stop-color="#837F78"/>

<stop  offset="100%" stop-color="#6B5B4B"/>
</linearGradient>

<linearGradient id="Gradient_2" gradientUnits="userSpaceOnUse" x1="573.35" y1="-16.85" x2="573.35" y2="103.75" spreadMethod="pad">
<stop  offset="0%" stop-color="#A29E95"/>

<stop  offset="100%" stop-color="#A08870"/>
</linearGradient>

<linearGradient id="Gradient_3" gradientUnits="userSpaceOnUse" x1="573.4" y1="102.04999999999998" x2="573.4" y2="278.85" spreadMethod="pad">
<stop  offset="0%" stop-color="#D266B1"/>

<stop  offset="100%" stop-color="#DDAAC9"/>
</linearGradient>

<linearGradient id="Gradient_4" gradientUnits="userSpaceOnUse" x1="572.15" y1="215.5" x2="572.15" y2="273.4" spreadMethod="pad">
<stop  offset="0%" stop-color="#C2719A"/>

<stop  offset="100%" stop-color="#E6ABC7"/>
</linearGradient>

<linearGradient id="Gradient_5" gradientUnits="userSpaceOnUse" x1="65.95" y1="0.02499999999999858" x2="65.95" y2="72.475" spreadMethod="pad">
<stop  offset="2.3529411764705883%" stop-color="#868686"/>

<stop  offset="84.31372549019608%" stop-color="#313332"/>
</linearGradient>

<filter id="Filter_1" x="-27.399037929044283%" y="-87.46779134086175%" width="154.79807585808857%" height="274.93558268172353%" color-interpolation-filters="sRGB">
<feGaussianBlur in="SourceGraphic" stdDeviation="7.333333333333333,7.333333333333333" result="result1"/>
</filter>

<filter id="Filter_2" x="-42.550632535327196%" y="-21.83435695350898%" width="185.1012650706544%" height="143.66871390701795%" color-interpolation-filters="sRGB">
<feGaussianBlur in="SourceGraphic" stdDeviation="1.6666666666666667,1.6666666666666667" result="result1"/>

<feColorMatrix in="result1" type="matrix" values="0 0 0 0 1 0 0 0 0 0.8 0 0 0 0 1 0 0 0 0.57 0" result="result2"/>
</filter>

<filter id="Filter_3" x="-20.62922895416998%" y="-29.329449690731334%" width="141.25845790833995%" height="158.65889938146267%" color-interpolation-filters="sRGB">
<feGaussianBlur in="SourceGraphic" stdDeviation="1.6666666666666667,1.6666666666666667" result="result1"/>
</filter>

<filter id="Filter_4" x="-31.506667925126898%" y="-25.65685424949238%" width="163.01333585025378%" height="151.31370849898477%" color-interpolation-filters="sRGB">
<feGaussianBlur in="SourceGraphic" stdDeviation="1.6666666666666667,1.6666666666666667" result="result1"/>

<feColorMatrix in="result1" type="matrix" values="1 0 0 0 0 0 1 0 0 0 0 0 1 0 0 0 0 0 0.43 0" result="result2"/>
</filter>

<g id="S_mbolo_1_0_Layer0_0_FILL">
<path fill="#BBBDBC" stroke="none" d="
M 85 26
Q 120.2 26 145.1 22.2 170 18.4 170 13 170 7.6 145.1 3.8 120.2 0 85 0 49.8 0 24.9 3.8 0 7.6 0 13 0 18.4 24.9 22.2 49.8 26 85 26 Z"/>
</g>

<g id="Layer0_0_MEMBER_1_FILL">
<path fill="#201E1F" stroke="none" d="
M 484.75 45.75
Q 481.05 47.35 477.8 49.25 468.75 54.45 462.8 61.95 460 65.45 457.9 69.5 455.3 74.4 453.8 80 447.6 99.55 425.8 101.5 447.8 121.05 469.3 122.7 476.35 123.2 483.4 121.85 487.3 117.9 491.45 114.45 480.35 117.65 469.3 116.5 453.1 114.7 436.95 103.4 455.1 99.8 460.05 82.1 461.05 77.8 462.8 73.9 463.8 71.65 466.65 66.9 469.45 62.2 475.15 58.1 480.8 54 487.1 53.65 485.3 47.9 484.75 45.75
M 619.9 -13.65
Q 625.85 -14.7 631.9 -16.85 631.15 0.3 643.9 15.75 645.45 17.2 646.95 18.7 652.45 24.25 656.15 30.1 661.8 38.8 663.4 48 667 35.5 667 21.4 667 -17 639.9 -44.25 612.85 -71.35 574.35 -71.35 535.95 -71.35 508.85 -44.25 481.75 -17 481.75 21.4 481.75 33.3 484.4 44.2 484.6 44.95 484.75 45.75 486 38.05 490.5 30.8 493.75 25.5 498.75 20.5 512.8 11.2 514.2 -13.4 556.15 8.55 605.65 -3.2 606.75 -3.5 607.7 -3.75 591.1 -9.5 584.2 -16.85 602 -10.5 619.9 -13.65 Z"/>

<path fill="#FFFFFA" stroke="none" d="
M 574.35 180.25
Q 609.1 150.2 619.3 107.2 599.25 118.4 574.35 118.4 549.9 118.4 530.1 107.5 537.85 147.95 574.35 180.25 Z"/>

<path fill="#E2E2DE" stroke="none" d="
M 529.35 102.65
Q 529.65 105 530.1 107.5 549.9 118.4 574.35 118.4 599.25 118.4 619.3 107.2 619.95 104.55 620.45 102 599.95 114 574.35 114 549.4 114 529.35 102.65 Z"/>

<path fill="#4E4F4F" stroke="none" d="
M 519.55 96.15
Q 513.95 91.95 508.85 86.8 492.45 70.4 487.1 53.65 480.8 54 475.15 58.1 469.45 62.2 466.65 66.9 463.8 71.65 462.8 73.9 461.05 77.8 460.05 82.1 455.1 99.8 436.95 103.4 453.1 114.7 469.3 116.5 480.35 117.65 491.45 114.45 504.6 103.2 519.55 96.15 Z"/>

<path fill="#CA1974" stroke="none" d="
M 629.1 96.25
Q 628.1 96.95 627.05 97.7 625.2 99 623.4 100.2 621.95 101.05 620.45 102 619.95 104.55 619.3 107.2 609.1 150.2 574.35 180.25 537.85 147.95 530.1 107.5 529.65 105 529.35 102.65 526.05 100.7 523 98.65 521.25 97.45 519.55 96.15 504.6 103.2 491.45 114.45 487.3 117.9 483.4 121.85 483.15 122.05 482.95 122.25 450.05 155.2 445.85 200.05 445.6 202.15 445.5 204.35 445.15 208.9 445.15 213.5
L 445.15 266.95
Q 444.9 271.5 446.4 274.75 449.1 280.75 457.45 282.45
L 692.75 284
Q 700 282.9 702.3 274.75 703.6 270.15 703.35 263.5
L 703.35 213.5
Q 703.35 208.9 703.05 204.35 702.95 202.15 702.75 200.05 698.45 155.2 665.6 122.25 648.8 105.55 629.1 96.25 Z"/>

<path fill="url(#Gradient_1)" stroke="none" d="
M 617.4 91.35
Q 616.1 92.15 614.75 93.1 596.25 103.75 573.3 103.75 550.8 103.75 532.8 93.55 529.8 91.9 527.05 89.95 525.5 88.85 523.9 87.75 518.95 83.85 514.2 79.25 498.05 63.05 492.55 42.4 492.35 41.65 492.3 40.95 491.15 36 490.5 30.8 486 38.05 484.75 45.75 485.3 47.9 487.1 53.65 492.45 70.4 508.85 86.8 513.95 91.95 519.55 96.15 521.25 97.45 523 98.65 526.05 100.7 529.35 102.65 549.4 114 574.35 114 599.95 114 620.45 102 621.95 101.05 623.4 100.2 625.2 99 627.05 97.7 628.1 96.95 629.1 96.25 634.7 92.05 639.9 86.8 657.05 69.65 663.4 48 661.8 38.8 656.15 30.1 655.4 37.55 653.35 44.4 647.7 63.85 632.25 79.25 627.7 84 622.5 87.75 621.7 88.4 620.7 89.1 619.05 90.2 617.4 91.35 Z"/>

<path fill="url(#Gradient_2)" stroke="none" d="
M 631.9 -16.85
Q 625.85 -14.7 619.9 -13.65 602 -10.5 584.2 -16.85 591.1 -9.5 607.7 -3.75 606.75 -3.5 605.65 -3.2 556.15 8.55 514.2 -13.4 512.8 11.2 498.75 20.5 493.75 25.5 490.5 30.8 491.15 36 492.3 40.95 492.35 41.65 492.55 42.4 498.05 63.05 514.2 79.25 518.95 83.85 523.9 87.75 525.5 88.85 527.05 89.95 529.8 91.9 532.8 93.55 550.8 103.75 573.3 103.75 596.25 103.75 614.75 93.1 616.1 92.15 617.4 91.35 619.05 90.2 620.7 89.1 621.7 88.4 622.5 87.75 627.7 84 632.25 79.25 647.7 63.85 653.35 44.4 655.4 37.55 656.15 30.1 652.45 24.25 646.95 18.7 645.45 17.2 643.9 15.75 631.15 0.3 631.9 -16.85 Z"/>
</g>

<g id="Layer0_0_MEMBER_1_MEMBER_0_FILL">
<path fill="url(#Gradient_3)" stroke="none" d="
M 692.7 212.5
Q 692.7 206 692.1 199.85 688.15 157.55 657.75 126.65 643.15 111.8 626.25 103.2 614.1 155.4 574.35 189.75 531.65 152.1 523.3 102.05 504.55 110.85 489.05 126.65 458.65 157.55 454.75 199.85 454.1 206 454.1 212.5
L 454.1 262.8
Q 453.45 274.9 465.45 277.4
L 682.9 278.85
Q 690.4 277.65 692.2 268.25 692.9 264.5 692.7 259.5
L 692.7 212.5 Z"/>
</g>

<g id="Layer0_0_MEMBER_1_MEMBER_0_MEMBER_0_FILL">
<path fill="url(#Gradient_4)" stroke="none" d="
M 684.65 273.4
L 684.65 215.5
Q 568.8 285.15 459.6 215.5
L 459.6 267.05 684.65 273.4 Z"/>
</g>

<g id="S_mbolo_3_0_Layer0_0_FILL">
<path fill="#D7A26C" stroke="none" d="
M 6.9 0
L 0 22
Q 47.05 42.2 33.05 118.4 47.25 78.45 41.3 52.3 37.05 18.4 6.9 0 Z"/>
</g>

<g id="S_mbolo_2_0_Layer0_0_FILL">
<path fill="url(#Gradient_5)" stroke="none" d="
M 131.65 72.5
Q 131.9 69.8 131.9 66.95 131.9 39.2 112.25 19.6 92.75 0 65 0 37.25 0 17.6 19.6 4.1 33.15 0 50.6 9.35 48.25 12.45 30.9 37.4 45.5 68.95 42.95 59.1 33.15 56.85 23.3 80.1 38.2 117.85 30.55 115.5 47.5 131.65 72.5 Z"/>
</g>

<g id="S_mbolo_4_0_Layer0_0_FILL">
<path fill="#E6CBAE" stroke="none" d="
M 65.15 28.5
Q 63.95 27.3 62.7 26.15 52.5 13.75 53.1 0 48.25 1.7 43.45 2.55 62.3 64.5 0.4 85.75 -1.4 87.65 4.5 89.5 34.8 84.65 51.7 65.05 64.35 48.1 65.15 28.5 Z"/>
</g>
</defs>

<g filter="url(#Filter_1)" transform="matrix( 1, 0, 0, 1, 0,0) ">
<g transform="matrix( 0.83941650390625, 0, 0, 1.23309326171875, 13.05,138.95) ">
<g transform="matrix( 1, 0, 0, 1, 0,0) ">
<use xlink:href="#S_mbolo_1_0_Layer0_0_FILL"/>
</g>
</g>
</g>

<g transform="matrix( 0.4478759765625, 0, 0, 0.4478759765625, -172.65,35.95) ">
<use xlink:href="#Layer0_0_MEMBER_1_FILL"/>
</g>

<g transform="matrix( 0.4478759765625, 0, 0, 0.4478759765625, -172.65,35.95) ">
<use xlink:href="#Layer0_0_MEMBER_1_MEMBER_0_FILL"/>
</g>

<g transform="matrix( 0.4478759765625, 0, 0, 0.4478759765625, -172.65,35.95) ">
<use xlink:href="#Layer0_0_MEMBER_1_MEMBER_0_MEMBER_0_FILL"/>
</g>

<g filter="url(#Filter_2)" transform="matrix( 1, 0, 0, 1, 0,0) ">
<g transform="matrix( 0.55853271484375, 0, 0, 0.55853271484375, 107.65,92.1) ">
<g transform="matrix( 1, 0, 0, 1, 0,0) ">
<use xlink:href="#S_mbolo_3_0_Layer0_0_FILL"/>
</g>
</g>
</g>

<g filter="url(#Filter_3)" transform="matrix( 1, 0, 0, 1, 0,0) ">
<g transform="matrix( 0.55853271484375, 0, 0, 0.55853271484375, 47.85,7.05) ">
<g transform="matrix( 1, 0, 0, 1, 0,0) ">
<use xlink:href="#S_mbolo_2_0_Layer0_0_FILL"/>
</g>
</g>
</g>

<g filter="url(#Filter_4)" transform="matrix( 1, 0, 0, 1, 0,0) ">
<g transform="matrix( 0.55853271484375, 0, 0, 0.55853271484375, 80.35,29.5) ">
<g transform="matrix( 1, 0, 0, 1, 0,0) ">
<use xlink:href="#S_mbolo_4_0_Layer0_0_FILL"/>
</g>
</g>
</g>
</svg>
